X:1
T:the Thrush in the Straw
T:the Thrush on the Strand
T:the Woeful Widow
T:the Humors of Lisheen
M:6/8
L:1/8
R:Jig
Z: Philippe Varlet  irtrad-l 2001-02-23
K:G
efg edB | cBA BGE | ~G3 BdB | BAG ABd |
efg edB | cBA BGE | ~G3 BdB |1 AGF GBd :|2 AGF G2D ||
GBd ~g3 | agf g2e | fed edB | cBA BGE |
GBd ~g3 | agf g2e | fed edB |1 AGF G2D :|2 AGF GBd |]
